X: 18384
T: Hungry Eye, The
R: jig
M: 6/8
K: Bminor
|:B3 F3|G3 EFG|BdB cfe|dec dcd|
B3 F3|G3EFG|BdB cfe|dec B3:|
|:B3 def|b3 baf|g3 efg|gbg faf|
fef dec|dcA G3|BdB cfe|dec B3:|
|:BdB cAG|BdB ecd|BdB cAB|GAF GED|
BdB cAG|BdB ecd|BdB cfe|dec B3:|

